X:1
T:Title
%%score { ( 1 3 ) | ( 2 4 ) }
L:1/8
Q:1/4=86
M:4/4
K:Db
V:1 treble nm="Grand Piano"
V:3 treble 
V:2 bass 
V:4 bass 
V:1
 [DF]2 [DF]2 [_CA]2 [CA]2 | AGF_F =F4 | z4 d2 z2 | [FA]2 [B,FA][EG] [DF]4 | %4
w: W.~J.~Baltzell * * *||||
 [A,DF]2 [A,DF]2 [_CA]2 [CA]2 | AG z E [DF]4 | [E=G]2 z =G, [Ee]2 dc | c2 B2 [CA]4 | A2 A2 B2 B2 | %9
w: |||||
 c2 de e2 d2 | d2 z2 z4 | e2 G-[Gc] [Fd]4 |] %12
w: |||
V:2
 [D,A,]2 [A,,A,]2 [=D,F,]2 [A,,F,]2 | [E,C]-[E,B,C] A,,2 [D,A,D]4 | %2
 [F,A,D]2 [F,A,D]2 .[G,B,D]2 [G,D]2 | [A,D]A, z C D,4 | D,2 A,,2 [=D,F,]2 [A,,F,]2 | %5
 [E,C]-[E,B,C] .[F,A,C]2 [B,,B,]4 | [D,B,]2 .[D,A,]2 [C,A,]2 [D,A,]2 | %7
 [E,A,E]2 [E,=G,D]2 [A,,A,]4 | [A,CE]2 [A,CE]2 [A,DF]2 [A,DF]2 | z2 .D2[K:bass] z4 | %10
 .[G,B,G]2 z[K:treble] G [A,DF]2 [A,DF]2 | [A,CG]2[K:bass] [A,,A,]2 [D,A,]4 |] %12
V:3
 x8 | z2 [A,C]2 z4 | A2 d2 z B[Ac][GB] | x8 | x8 | z2 F2 z4 | z2 [EB]2 z2 F2 | x8 | x8 | z4 F4 | %10
 z B[Ac]B B2 A2 | z2 .B2 z4 |] %12
V:4
 x8 | .G,2 z2 z4 | x8 | z2 A,,2 z4 | x8 | .G,2 z2 z4 | x8 | x8 | x8 | %9
 [A,EG]2 [A,G]-[A,CG][K:bass] [D,_C]4 | z2 [G,D]2[K:treble] z4 | x2[K:bass] x6 |] %12

